src/img/channel/channel_40.svg

<svg fill="none" height="100" viewBox="0 0 110 100" width="110" xmlns="http://www.w3.org/2000/svg"><path d="m73.7588 70.8377c-19.5613 0-35.419-15.8575-35.419-35.4188 0-19.5612 15.8577-35.41865586 35.419-35.41865586 19.561 0 35.4182 15.85765586 35.4182 35.41865586 0 19.5613-15.8572 35.4188-35.4182 35.4188z" fill="#d3d2d5"/><path d="m73.7595 70.8377c19.5612 0 35.4185-15.8575 35.4185-35.4188 0-19.5612-15.8573-35.41865586-35.4185-35.41865586s-35.4187 15.85745586-35.4187 35.41865586c0 19.5613 15.8575 35.4188 35.4187 35.4188z" fill="#d3d2d5"/><path d="m26.8012 6.73073c5.5149-.76719 10.8563-4.20782 16.3053-5.891461-2.4753-.547959-5.0471-.839269-7.6874-.839269-6.5304 0-12.6469 1.76933-17.8996 4.8521 2.5236 1.88713 5.9247 2.346 9.2817 1.87863z" fill="#2a3b8e"/><path d="m68.6054 23.0225c-3.706 2.7659-9.3196 3.8595-13.1245 3.6503-7.995-.44-22.4346-14.9829-31.7299-16.72374-5.8009-1.08635-11.3294.29854-15.16401 2.55454-.23539.1387-.44355.3201-.61643.5316-2.92287 3.5797-5.15829 7.7418-6.50767 12.2856 6.98993-9.6351 16.44281-5.7545 25.85311 1.0942 14.9172 10.8574 29.6891 20.9934 42.0746 15.5666.5814-.2548.9847-.8006 1.0762-1.4289.2436-1.6762.3706-3.3901.3706-5.1339 0-4.3613-.7902-8.5379-2.232-12.3963z" fill="#c40006"/><path d="m2.45117 47.7579c-.11439.0551-.16904.1908-.12375.3094 1.35087 3.5321 3.2499 6.7928 5.59462 9.677.05422.0666.13991.0989.22476.0859 8.4958-1.2754 16.9712 6.4088 25.37 12.9131.0398.0308.0876.0485.1376.0508.5845.0287 1.1727.0434 1.7642.0434 7.064 0 13.6433-2.0696 19.1684-5.6331-.6345-.4096-1.255-.8391-1.861-1.2873-25.713-.8729-31.4641-25.2129-50.27483-16.1592z" fill="#6fa9de"/><path d="m19.5815 57.5424c-3.4312-.2981-8.8981-1.3987-14.1816-3.322 6.2642 9.9807 17.3658 16.6172 30.0191 16.6172 1.0072 0 2.0038-.0442 2.9896-.1267 7.8951-6.1349 15.8549-13.2157 23.8378-12.8297.3398.0163.6683-.1319.8803-.3979 2.3615-2.962 4.257-6.312 5.5778-9.9379.0934-.256.0136-.5447-.1949-.7199-9.0763-7.6168-32.7398 12.1337-48.9281 10.7169z" fill="#2a3b8e"/><path d="m44.5137 26.5503c8.7252-6.3522 17.4894-10.1454 24.2914-2.9783-2.6586-7.4918-7.7661-13.82255-14.3612-18.03079-.5992-.38253-1.2989-.58326-2.0098-.5688-2.2998.04678-4.8631.32002-7.7377.84905-13.4568 2.47528-26.2812 13.87144-36.89336 7.42154-4.88059 6.0701-7.80304 13.7811-7.80304 22.1759 0 1.8276.140551 3.6222.40762 5.3752.029769.1949.147355.3672.318951.4646 12.724229 7.2244 28.173629-3.3437 43.787129-14.7084z" fill="#6fa9de"/><g fill="#4f5da1"><path d="m15.6666 83.8971c.5932.6315.842 1.3968.842 2.3537 0 2.3921-1.6075 3.9037-4.1717 3.9037h-5.70262v-13.625h5.47302c2.5643 0 4.2099 1.4545 4.2099 3.7507 0 1.3013-.555 2.2582-1.6838 2.8897.5356.2871.7461.4404 1.0332.7272zm-3.7698-1.8561c1.0908 0 1.7606-.5932 1.7606-1.5692s-.6698-1.5693-1.7606-1.5693h-2.60268v3.1385zm.1722 5.7409c1.0906 0 1.7797-.6508 1.7797-1.684 0-1.0334-.6889-1.665-1.7797-1.665h-2.77488v3.349z"/><path d="m27.3724 90.1547v-7.9416l-2.6024 5.1668h-1.7989l-2.6218-5.1668v7.9416h-2.6598v-13.6249h2.6217l3.5593 7.3673 3.5402-7.3673h2.6217v13.6249z"/><path d="m31.2744 90.1547v-13.6249h8.9749v2.3728h-6.315v3.1956h5.3773v2.373h-5.3773v3.3106h6.315v2.3727h-8.9749z"/><path d="m46.236 90.2696c-1.4927 0-2.7173-.5358-3.6741-1.4927-1.3777-1.3779-1.3396-3.0809-1.3396-5.4349 0-2.3537-.0383-4.0569 1.3396-5.4348.9568-.9568 2.1816-1.4926 3.6741-1.4926 2.5452 0 4.5353 1.4544 5.0137 4.3056h-2.6981c-.268-1.0908-.9569-1.9329-2.2963-1.9329-.7272 0-1.3204.268-1.7032.7081-.5167.5741-.6698 1.2248-.6698 3.8464 0 2.6217.1531 3.2724.6698 3.8465.3828.44.976.7081 1.7032.7081 1.3396 0 2.0286-.8421 2.2963-1.9329h2.6981c-.4782 2.8517-2.4876 4.3061-5.0137 4.3061z"/><path d="m57.6188 78.9026v11.2521h-2.6601v-11.2521h-3.5593v-2.3728h9.7789v2.3728z"/><path d="m61.9878 90.1547v-13.6249h8.9746v2.3728h-6.3148v3.1956h5.3773v2.373h-5.3773v3.3106h6.3148v2.3727h-8.9746z"/><path d="m71.3076 84.4663v-2.3679h5.8942v2.3679z"/><path d="m83.7655 76.5298c2.6218 0 4.497 1.7604 4.497 4.2482s-1.8561 4.2482-4.497 4.2482h-2.6218v5.1285h-2.6598v-13.6249zm-.1337 6.1045c1.1862 0 1.9711-.7272 1.9711-1.8563s-.7846-1.8752-1.9711-1.8752h-2.4879v3.7317h2.4879z"/><path d="m94.4112 90.2504v-1.6266c-3.9806-.2103-5.607-2.258-5.607-5.7983 0-3.5213 1.8561-5.3582 5.607-5.5876v-1.359h2.6407v1.359c3.7701.2294 5.6071 2.0665 5.6071 5.5876 0 3.5401-1.608 5.5878-5.6071 5.7983v1.6266zm.0382-10.7354c-2.2007.0956-2.9851 1.1864-2.9851 3.4253 0 2.1625.8226 3.3296 2.9851 3.4636zm2.5831 6.8889c2.1625-.134 2.9855-1.3011 2.9855-3.4636 0-2.2389-.7847-3.3297-2.9855-3.4253z"/><path d="m8.02957 96.5349v2.75h-.48289v-2.75h-.87627v-.4336h2.23564v.4336z"/><path d="m10.4492 99.2846v-3.1835h2.039v.4335h-1.5561v.9301h1.3234v.4293h-1.3234v.9571h1.5561v.4335z"/><path d="m15.9893 99.2846v-2.75h-.9167v1.006c0 1.3368-.3219 1.7438-.9613 1.7438h-.2011v-.4336h.0848c.3532 0 .6081-.2239.6081-1.3772v-1.3728h1.8689v3.1836h-.4827z"/><path d="m18.2397 99.2846v-3.1835h2.0388v.4335h-1.5559v.9301h1.3235v.4293h-1.3235v.9571h1.5559v.4335z"/><path d="m21.8813 99.2846v-3.1835h.4829v1.5112l1.1893-1.5112h.5945l-1.225 1.5022 1.3369 1.6811h-.6126l-1.2833-1.6632v1.6632h-.4827z"/><path d="m27.757 99.2846-.2234-.6396h-1.2565l-.2235.6396h-.5097l1.167-3.1835h.3889l1.1625 3.1835zm-.8405-2.4635-.5008 1.4129h.9882z"/><path d="m31.5318 99.2846v-1.3906h-1.2877v1.3906h-.4829v-3.1835h.4829v1.3636h1.2877v-1.3636h.4874v3.1835z"/><path d="m35.7268 99.2846-.2235-.6396h-1.2565l-.2234.6396h-.5097l1.1669-3.1835h.3891l1.1625 3.1835zm-.8406-2.4635-.5007 1.4129h.9881z"/><path d="m39.6363 99.2846v-2.75h-.9167v1.006c0 1.3368-.3219 1.7438-.9613 1.7438h-.2012v-.4336h.0851c.3532 0 .6079-.2239.6079-1.3772v-1.3728h1.8691v3.1836h-.4829z"/><path d="m45.0426 99.3113c-.3309 0-.6171-.1205-.8361-.3398-.313-.313-.3085-.6664-.3085-1.2787 0-.6126-.0045-.9658.3085-1.279.219-.2191.5052-.3398.8361-.3398.5856 0 1.0238.3442 1.1356.9789h-.4918c-.0759-.3219-.2907-.5452-.6438-.5452-.1878 0-.3577.0717-.4695.1923-.1565.1699-.1923.3529-.1923.9925 0 .6394.0358.8225.1923.9926.1118.1206.2817.192.4695.192.3531 0 .5722-.2235.6483-.5452h.4873c-.1073.6352-.559.9794-1.1356.9794z"/><path d="m49.9973 97.7377c0 .5233-.0045.9211-.3085 1.2341-.219.2235-.5052.3398-.8406.3398-.3308 0-.617-.1163-.8361-.3398-.304-.3087-.3085-.7423-.3085-1.2162v-.2101c0-.5231.0402-.8631.3085-1.1312.2191-.2191.5097-.3398.8361-.3398.3309 0 .6216.1205.8406.3398.2458.2504.3085.6036.3085 1.0553zm-.6749-1.0326c-.1252-.1297-.2907-.1969-.474-.1969-.1788 0-.3487.067-.4739.1969-.1789.1876-.1833.5006-.1833.9076v.2728c0 .3262.0134.6258.1833.7957.1297.1297.2906.1966.4739.1966.1878 0 .3532-.0667.474-.1966.1878-.1969.1878-.4785.1878-1.0196-.0003-.4829-.0092-.7691-.1878-.9565z"/><path d="m52.9552 99.2846h-1.2877v-3.1835h1.2386c.5811 0 .9613.34.9613.8584 0 .3221-.1476.5543-.4293.6932.313.1473.4784.3757.4784.7378 0 .5499-.3666.8941-.9613.8941zm-.0893-2.7497h-.7153v.9122h.7153c.3219 0 .5186-.1697.5186-.4559s-.1967-.4563-.5186-.4563zm.0402 1.3459h-.7557v.9703h.7557c.3219 0 .5231-.1882.5231-.4876 0-.2949-.2012-.4827-.5231-.4827z"/><path d="m55.5664 99.2846v-3.1835h2.039v.4335h-1.5559v.9301h1.3234v.4293h-1.3234v.9571h1.5559v.4335z"/><path d="m60.4226 96.5349v2.75h-.4829v-2.75h-.8762v-.4336h2.2356v.4336z"/><path d="m64.4204 99.2846-.2233-.6396h-1.2564l-.2237.6396h-.5095l1.167-3.1835h.3889l1.1624 3.1835zm-.8405-2.4635-.5006 1.4129h.9881z"/><path d="m69.5635 99.3069v-.3979c-.9345-.0399-1.3145-.505-1.3145-1.3368 0-.8227.4159-1.252 1.3145-1.2964v-.3088h.4829v.3088c.8988.0444 1.3147.4737 1.3147 1.2964 0 .8318-.3802 1.2969-1.3147 1.3368v.3979zm0-2.6156c-.6349.0223-.8316.3311-.8316.9033 0 .5632.2099.8809.8316.9075zm.4829 1.8108c.6218-.0266.8316-.3441.8316-.9075 0-.5722-.1967-.881-.8316-.9033z"/><path d="m72.9526 99.2846v-3.1835h2.039v.4335h-1.5561v.9301h1.3237v.4293h-1.3237v.9571h1.5561v.4335z"/><path d="m78.9321 96.1013v2.75h.3756v1.1487h-.474v-.7151h-1.9316v.7151h-.4695v-1.1487h.2775c.2771-.4293.3887-1.0553.3887-1.811v-.939zm-1.3683 1.1446c0 .6082-.0761 1.1582-.313 1.6054h1.1982v-2.3164h-.8852z"/><path d="m80.8618 99.2846v-3.1835h2.039v.4335h-1.5559v.9301h1.3235v.4293h-1.3235v.9571h1.5559v.4335z"/><path d="m85.704 98.0329h-.724v1.252h-.4829v-3.1836h1.2071c.6037 0 1.0194.3936 1.0194.9658s-.4159.9658-1.0196.9658zm-.0313-1.498h-.693v1.0644h.693c.3487 0 .5678-.206.5678-.5322 0-.3309-.2191-.5322-.5678-.5322z"/><path d="m89.9494 99.2846-.2235-.6396h-1.2562l-.2237.6396h-.5097l1.1672-3.1835h.3887l1.1627 3.1835zm-.8405-2.4635-.5008 1.4129h.9881z"/><path d="m94.1131 100v-.7151h-2.1595v-3.1836h.4829v2.75h1.2877v-2.75h.4829v2.75h.3757v1.1487z"/><path d="m98.0008 99.2846v-2.3115l-1.4261 2.3115h-.4385v-3.1835h.4829v2.3073l1.4221-2.3073h.4425v3.1835z"/><path d="m102.114 99.2846v-2.3115l-1.426 2.3115h-.438v-3.1835h.482v2.3073l1.422-2.3073h.443v3.1835z"/></g></svg>

<svg width="110" height="100" viewBox="0 0 110 100" fill="none" xmlns="http://www.w3.org/2000/svg">
<path d="M73.7588 70.8377C54.1975 70.8377 38.3398 54.9802 38.3398 35.4189C38.3398 15.8577 54.1975 0.000244141 73.7588 0.000244141C93.3198 0.000244141 109.177 15.8579 109.177 35.4189C109.177 54.9802 93.3198 70.8377 73.7588 70.8377Z" fill="#D3D2D5"/>
<path d="M73.7595 70.8377C93.3207 70.8377 109.178 54.9802 109.178 35.4189C109.178 15.8577 93.3207 0.000244141 73.7595 0.000244141C54.1983 0.000244141 38.3408 15.8577 38.3408 35.4189C38.3408 54.9802 54.1983 70.8377 73.7595 70.8377Z" fill="#D3D2D5"/>
<path d="M26.8012 6.73073C32.3161 5.96354 37.6575 2.52291 43.1065 0.839269C40.6312 0.29131 38.0594 0 35.4191 0C28.8887 0 22.7722 1.76933 17.5195 4.8521C20.0431 6.73923 23.4442 7.1981 26.8012 6.73073Z" fill="#2A3B8E"/>
<path d="M68.6054 23.0225C64.8994 25.7884 59.2858 26.882 55.4809 26.6728C47.4859 26.2328 33.0463 11.6899 23.751 9.94906C17.9501 8.86271 12.4216 10.2476 8.58699 12.5036C8.3516 12.6423 8.14344 12.8237 7.97056 13.0352C5.04769 16.6149 2.81227 20.777 1.46289 25.3208C8.45282 15.6857 17.9057 19.5663 27.316 26.415C42.2332 37.2724 57.0051 47.4084 69.3906 41.9816C69.972 41.7268 70.3753 41.181 70.4668 40.5527C70.7104 38.8765 70.8374 37.1626 70.8374 35.4188C70.8374 31.0575 70.0472 26.8809 68.6054 23.0225Z" fill="#C40006"/>
<path d="M2.45117 47.7579C2.33678 47.813 2.28213 47.9487 2.32742 48.0673C3.67829 51.5994 5.57732 54.8601 7.92204 57.7443C7.97626 57.8109 8.06195 57.8432 8.1468 57.8302C16.6426 56.5548 25.118 64.239 33.5168 70.7433C33.5566 70.7741 33.6044 70.7918 33.6544 70.7941C34.2389 70.8228 34.8271 70.8375 35.4186 70.8375C42.4826 70.8375 49.0619 68.7679 54.587 65.2044C53.9525 64.7948 53.332 64.3653 52.726 63.9171C27.013 63.0442 21.2619 38.7042 2.45117 47.7579Z" fill="#6FA9DE"/>
<path d="M19.5815 57.5424C16.1503 57.2443 10.6834 56.1437 5.3999 54.2204C11.6641 64.2011 22.7657 70.8376 35.419 70.8376C36.4262 70.8376 37.4228 70.7934 38.4086 70.7109C46.3037 64.576 54.2635 57.4952 62.2464 57.8812C62.5862 57.8975 62.9147 57.7493 63.1267 57.4833C65.4882 54.5213 67.3837 51.1713 68.7045 47.5454C68.7979 47.2894 68.7181 47.0007 68.5096 46.8255C59.4333 39.2087 35.7698 58.9592 19.5815 57.5424Z" fill="#2A3B8E"/>
<path d="M44.5137 26.5503C53.2389 20.1981 62.0031 16.4049 68.8051 23.572C66.1465 16.0802 61.039 9.74945 54.4439 5.54121C53.8447 5.15868 53.145 4.95795 52.4341 4.97241C50.1343 5.01919 47.571 5.29243 44.6964 5.82146C31.2396 8.29674 18.4152 19.6929 7.80304 13.243C2.92245 19.3131 0 27.0241 0 35.4189C0 37.2465 0.140551 39.0411 0.40762 40.7941C0.437389 40.989 0.554975 41.1613 0.726571 41.2587C13.4508 48.4831 28.9002 37.915 44.5137 26.5503Z" fill="#6FA9DE"/>
<path d="M15.6666 83.8971C16.2598 84.5286 16.5086 85.2939 16.5086 86.2508C16.5086 88.6429 14.9011 90.1545 12.3369 90.1545H6.63428V76.5295H12.1073C14.6716 76.5295 16.3172 77.984 16.3172 80.2802C16.3172 81.5815 15.7622 82.5384 14.6334 83.1699C15.169 83.457 15.3795 83.6103 15.6666 83.8971ZM11.8968 82.041C12.9876 82.041 13.6574 81.4478 13.6574 80.4718C13.6574 79.4958 12.9876 78.9025 11.8968 78.9025H9.29412V82.041H11.8968ZM12.069 87.7819C13.1596 87.7819 13.8487 87.1311 13.8487 86.0979C13.8487 85.0645 13.1598 84.4329 12.069 84.4329H9.29412V87.7819H12.069Z" fill="#4F5DA1"/>
<path d="M27.3724 90.1547V82.2131L24.77 87.3799H22.9711L20.3493 82.2131V90.1547H17.6895V76.5298H20.3112L23.8705 83.8971L27.4107 76.5298H30.0324V90.1547H27.3724Z" fill="#4F5DA1"/>
<path d="M31.2744 90.1547V76.5298H40.2493V78.9026H33.9343V82.0982H39.3116V84.4712H33.9343V87.7818H40.2493V90.1545H31.2744V90.1547Z" fill="#4F5DA1"/>
<path d="M46.236 90.2696C44.7433 90.2696 43.5187 89.7338 42.5619 88.7769C41.1842 87.399 41.2223 85.696 41.2223 83.342C41.2223 80.9883 41.184 79.2851 42.5619 77.9072C43.5187 76.9504 44.7435 76.4146 46.236 76.4146C48.7812 76.4146 50.7713 77.869 51.2497 80.7202H48.5516C48.2836 79.6294 47.5947 78.7873 46.2553 78.7873C45.5281 78.7873 44.9349 79.0553 44.5521 79.4954C44.0354 80.0695 43.8823 80.7202 43.8823 83.3418C43.8823 85.9635 44.0354 86.6142 44.5521 87.1883C44.9349 87.6283 45.5281 87.8964 46.2553 87.8964C47.5949 87.8964 48.2839 87.0543 48.5516 85.9635H51.2497C50.7715 88.8152 48.7621 90.2696 46.236 90.2696Z" fill="#4F5DA1"/>
<path d="M57.6188 78.9026V90.1547H54.9587V78.9026H51.3994V76.5298H61.1783V78.9026H57.6188Z" fill="#4F5DA1"/>
<path d="M61.9878 90.1547V76.5298H70.9624V78.9026H64.6476V82.0982H70.0249V84.4712H64.6476V87.7818H70.9624V90.1545H61.9878V90.1547Z" fill="#4F5DA1"/>
<path d="M71.3076 84.4663V82.0984H77.2018V84.4663H71.3076Z" fill="#4F5DA1"/>
<path d="M83.7655 76.5298C86.3873 76.5298 88.2625 78.2902 88.2625 80.778C88.2625 83.2658 86.4064 85.0262 83.7655 85.0262H81.1437V90.1547H78.4839V76.5298H83.7655ZM83.6318 82.6343C84.818 82.6343 85.6029 81.9071 85.6029 80.778C85.6029 79.6489 84.8183 78.9028 83.6318 78.9028H81.1439V82.6345H83.6318V82.6343Z" fill="#4F5DA1"/>
<path d="M94.4112 90.2504V88.6238C90.4306 88.4135 88.8042 86.3658 88.8042 82.8255C88.8042 79.3042 90.6603 77.4673 94.4112 77.2379V75.8789H97.0519V77.2379C100.822 77.4673 102.659 79.3044 102.659 82.8255C102.659 86.3656 101.051 88.4133 97.0519 88.6238V90.2504H94.4112ZM94.4494 79.515C92.2487 79.6106 91.4643 80.7014 91.4643 82.9403C91.4643 85.1028 92.2869 86.2699 94.4494 86.4039V79.515ZM97.0325 86.4039C99.195 86.2699 100.018 85.1028 100.018 82.9403C100.018 80.7014 99.2333 79.6106 97.0325 79.515V86.4039Z" fill="#4F5DA1"/>
<path d="M8.02957 96.5349V99.2849H7.54668V96.5349H6.67041V96.1013H8.90605V96.5349H8.02957Z" fill="#4F5DA1"/>
<path d="M10.4492 99.2846V96.1011H12.4882V96.5346H10.9321V97.4647H12.2555V97.894H10.9321V98.8511H12.4882V99.2846H10.4492Z" fill="#4F5DA1"/>
<path d="M15.9893 99.2846V96.5346H15.0726V97.5406C15.0726 98.8774 14.7507 99.2844 14.1113 99.2844H13.9102V98.8508H13.995C14.3482 98.8508 14.6031 98.6269 14.6031 97.4736V96.1008H16.472V99.2844H15.9893V99.2846Z" fill="#4F5DA1"/>
<path d="M18.2397 99.2846V96.1011H20.2785V96.5346H18.7226V97.4647H20.0461V97.894H18.7226V98.8511H20.2785V99.2846H18.2397Z" fill="#4F5DA1"/>
<path d="M21.8813 99.2846V96.1011H22.3642V97.6123L23.5535 96.1011H24.148L22.923 97.6033L24.2599 99.2844H23.6473L22.364 97.6212V99.2844H21.8813V99.2846Z" fill="#4F5DA1"/>
<path d="M27.757 99.2846L27.5336 98.645H26.2771L26.0536 99.2846H25.5439L26.7109 96.1011H27.0998L28.2623 99.2846H27.757ZM26.9165 96.8211L26.4157 98.234H27.4039L26.9165 96.8211Z" fill="#4F5DA1"/>
<path d="M31.5318 99.2846V97.894H30.2441V99.2846H29.7612V96.1011H30.2441V97.4647H31.5318V96.1011H32.0192V99.2846H31.5318Z" fill="#4F5DA1"/>
<path d="M35.7268 99.2846L35.5033 98.645H34.2468L34.0234 99.2846H33.5137L34.6806 96.1011H35.0697L36.2322 99.2846H35.7268ZM34.8862 96.8211L34.3855 98.234H35.3736L34.8862 96.8211Z" fill="#4F5DA1"/>
<path d="M39.6363 99.2846V96.5346H38.7196V97.5406C38.7196 98.8774 38.3977 99.2844 37.7583 99.2844H37.5571V98.8508H37.6422C37.9954 98.8508 38.2501 98.6269 38.2501 97.4736V96.1008H40.1192V99.2844H39.6363V99.2846Z" fill="#4F5DA1"/>
<path d="M45.0426 99.3113C44.7117 99.3113 44.4255 99.1908 44.2065 98.9715C43.8935 98.6585 43.898 98.3051 43.898 97.6928C43.898 97.0802 43.8935 96.727 44.2065 96.4138C44.4255 96.1947 44.7117 96.074 45.0426 96.074C45.6282 96.074 46.0664 96.4182 46.1782 97.0529H45.6864C45.6105 96.731 45.3957 96.5077 45.0426 96.5077C44.8548 96.5077 44.6849 96.5794 44.5731 96.7C44.4166 96.8699 44.3808 97.0529 44.3808 97.6925C44.3808 98.3319 44.4166 98.515 44.5731 98.6851C44.6849 98.8057 44.8548 98.8771 45.0426 98.8771C45.3957 98.8771 45.6148 98.6536 45.6909 98.3319H46.1782C46.0709 98.9671 45.6192 99.3113 45.0426 99.3113Z" fill="#4F5DA1"/>
<path d="M49.9973 97.7377C49.9973 98.261 49.9928 98.6588 49.6888 98.9718C49.4698 99.1953 49.1836 99.3116 48.8482 99.3116C48.5174 99.3116 48.2312 99.1953 48.0121 98.9718C47.7081 98.6631 47.7036 98.2295 47.7036 97.7556V97.5455C47.7036 97.0224 47.7438 96.6824 48.0121 96.4143C48.2312 96.1952 48.5218 96.0745 48.8482 96.0745C49.1791 96.0745 49.4698 96.195 49.6888 96.4143C49.9346 96.6647 49.9973 97.0179 49.9973 97.4696V97.7377ZM49.3224 96.7051C49.1972 96.5754 49.0317 96.5082 48.8484 96.5082C48.6696 96.5082 48.4997 96.5752 48.3745 96.7051C48.1956 96.8927 48.1912 97.2057 48.1912 97.6127V97.8855C48.1912 98.2117 48.2046 98.5113 48.3745 98.6812C48.5042 98.8109 48.6651 98.8778 48.8484 98.8778C49.0362 98.8778 49.2016 98.8111 49.3224 98.6812C49.5102 98.4843 49.5102 98.2027 49.5102 97.6616C49.5099 97.1787 49.501 96.8925 49.3224 96.7051Z" fill="#4F5DA1"/>
<path d="M52.9552 99.2846H51.6675V96.1011H52.9061C53.4872 96.1011 53.8674 96.4411 53.8674 96.9595C53.8674 97.2816 53.7198 97.5138 53.4381 97.6527C53.7511 97.8 53.9165 98.0284 53.9165 98.3905C53.9165 98.9404 53.5499 99.2846 52.9552 99.2846ZM52.8659 96.5349H52.1506V97.4471H52.8659C53.1878 97.4471 53.3845 97.2774 53.3845 96.9912C53.3845 96.705 53.1878 96.5349 52.8659 96.5349ZM52.9061 97.8808H52.1504V98.8511H52.9061C53.228 98.8511 53.4292 98.6629 53.4292 98.3635C53.4292 98.0686 53.228 97.8808 52.9061 97.8808Z" fill="#4F5DA1"/>
<path d="M55.5664 99.2846V96.1011H57.6054V96.5346H56.0495V97.4647H57.3729V97.894H56.0495V98.8511H57.6054V99.2846H55.5664Z" fill="#4F5DA1"/>
<path d="M60.4226 96.5349V99.2849H59.9397V96.5349H59.0635V96.1013H61.2991V96.5349H60.4226Z" fill="#4F5DA1"/>
<path d="M64.4204 99.2846L64.1971 98.645H62.9407L62.717 99.2846H62.2075L63.3745 96.1011H63.7634L64.9258 99.2846H64.4204ZM63.5799 96.8211L63.0793 98.234H64.0674L63.5799 96.8211Z" fill="#4F5DA1"/>
<path d="M69.5635 99.3069V98.909C68.629 98.8691 68.249 98.404 68.249 97.5722C68.249 96.7495 68.6649 96.3202 69.5635 96.2758V95.967H70.0464V96.2758C70.9452 96.3202 71.3611 96.7495 71.3611 97.5722C71.3611 98.404 70.9809 98.8691 70.0464 98.909V99.3069H69.5635ZM69.5635 96.6913C68.9286 96.7136 68.7319 97.0224 68.7319 97.5946C68.7319 98.1578 68.9418 98.4755 69.5635 98.5021V96.6913ZM70.0464 98.5021C70.6682 98.4755 70.878 98.158 70.878 97.5946C70.878 97.0224 70.6813 96.7136 70.0464 96.6913V98.5021Z" fill="#4F5DA1"/>
<path d="M72.9526 99.2846V96.1011H74.9916V96.5346H73.4355V97.4647H74.7592V97.894H73.4355V98.8511H74.9916V99.2846H72.9526Z" fill="#4F5DA1"/>
<path d="M78.9321 96.1013V98.8513H79.3077V100H78.8337V99.2849H76.9021V100H76.4326V98.8513H76.7101C76.9872 98.422 77.0988 97.796 77.0988 97.0403V96.1013H78.9321ZM77.5638 97.2459C77.5638 97.8541 77.4877 98.4041 77.2508 98.8513H78.449V96.5349H77.5638V97.2459Z" fill="#4F5DA1"/>
<path d="M80.8618 99.2846V96.1011H82.9008V96.5346H81.3449V97.4647H82.6684V97.894H81.3449V98.8511H82.9008V99.2846H80.8618Z" fill="#4F5DA1"/>
<path d="M85.704 98.0329H84.98V99.2849H84.4971V96.1013H85.7042C86.3079 96.1013 86.7236 96.4949 86.7236 97.0671C86.7236 97.6393 86.3077 98.0329 85.704 98.0329ZM85.6727 96.5349H84.9797V97.5993H85.6727C86.0214 97.5993 86.2405 97.3933 86.2405 97.0671C86.2405 96.7362 86.0214 96.5349 85.6727 96.5349Z" fill="#4F5DA1"/>
<path d="M89.9494 99.2846L89.7259 98.645H88.4697L88.246 99.2846H87.7363L88.9035 96.1011H89.2922L90.4549 99.2846H89.9494ZM89.1089 96.8211L88.6081 98.234H89.5962L89.1089 96.8211Z" fill="#4F5DA1"/>
<path d="M94.1131 100V99.2849H91.9536V96.1013H92.4365V98.8513H93.7242V96.1013H94.2071V98.8513H94.5828V100H94.1131Z" fill="#4F5DA1"/>
<path d="M98.0008 99.2846V96.9731L96.5747 99.2846H96.1362V96.1011H96.6191V98.4084L98.0412 96.1011H98.4837V99.2846H98.0008Z" fill="#4F5DA1"/>
<path d="M102.114 99.2846V96.9731L100.688 99.2846H100.25V96.1011H100.732V98.4084L102.154 96.1011H102.597V99.2846H102.114Z" fill="#4F5DA1"/>
</svg>
